X:1
T:The Bold Fisherman
M:5/4
L:1/4
K:G
 D| G F E- F G| A F D2 D| G G A- G A| B2 B
M:5/4
| d B B A G| A B E- F G| F A| D- FA/2-B/2| G3 z||
